!!!OTL: NICHTS BESSRES GIBT ES WEIT UND BREIT
!!!ARE: Europa, Mitteleuropa, Deutschland
!!!SCT: F0205
!!!YEM: Copyright 1995, estate of Helmut Schaffrath.
**kern
*ICvox
*Ivox
*M2/4
*k[f#]
*G:
{16g
16a
=1
8b
8b
8b
8b
=2
16dd
16cc
8a
8g}
{16f#
16g
=3
8a
8a
8b
8dd
=4
4a
8r}
{16g
16a
=5
8b
8b
8b
8b
=6
16dd
16cc
8a
8g}
{16f#
16g
=7
8a
8a
8b
8dd
=8
4a
8r}
{8dd
=9
8cc
8cc
8b
8b
=10
16a
16g
16a
16b
8g}
{8dd
=11
8cc
8cc
8b
8b
=12
16a
16g
16a
16b
8g}
{8g
=13
4.ee
8ee
=14
4.ee
16dd
16cc
=15
8b
8a
8g}
{16g
16a
=16
4b
16a
16r
16a
16b
=17
4cc
16b
16r}
{16b
16cc
=18
8dd
8dd
8cc
8b
=19
16a
16g
16a
16b
8a}
{16g
16g
=20
4b
16a
16r
16a
16b
=21
4cc
16b
16r}
{16b
16cc
=22
8dd
8b
8cc
8a
=23
4g
8r}
==
!!!AGN: Geselligkeits - Lied
!!!ONB: ESAC (Essen Associative Code) Database: FINK
!!!AMT: simple duple
!!!AIN: vox
!!!EED: Helmut Schaffrath
!!!EEV: 1.0
*-
